humanity-icon-theme/Humanity/places/48/bookmark-missing.svg

<?xml version="1.0" encoding="UTF-8" standalone="no"?>
<!-- Created with Inkscape (http://www.inkscape.org/) -->

<svg
   xmlns:dc="http://purl.org/dc/elements/1.1/"
   xmlns:cc="http://creativecommons.org/ns#"
   xmlns:rdf="http://www.w3.org/1999/02/22-rdf-syntax-ns#"
   xmlns:svg="http://www.w3.org/2000/svg"
   xmlns="http://www.w3.org/2000/svg"
   xmlns:xlink="http://www.w3.org/1999/xlink"
   xmlns:sodipodi="http://sodipodi.sourceforge.net/DTD/sodipodi-0.dtd"
   xmlns:inkscape="http://www.inkscape.org/namespaces/inkscape"
   width="48px"
   height="48px"
   id="svg3005"
   version="1.1"
   inkscape:version="0.47 r22583"
   sodipodi:docname="bookmark-missing.svg">
  <defs
     id="defs3007">
    <linearGradient
       y2="33.95525"
       x2="15.214532"
       y1="22.292103"
       x1="11.566265"
       gradientTransform="translate(2.9799125,-3.1216548)"
       gradientUnits="userSpaceOnUse"
       id="linearGradient3619-875"
       xlink:href="#linearGradient8265-821-176-38-919-66-249-517"
       inkscape:collect="always" />
    <linearGradient
       id="linearGradient8265-821-176-38-919-66-249-517">
      <stop
         offset="0"
         style="stop-color:#ffffff;stop-opacity:0.27450982"
         id="stop2896" />
      <stop
         offset="1"
         style="stop-color:#ffffff;stop-opacity:0"
         id="stop2898" />
    </linearGradient>
    <linearGradient
       gradientUnits="userSpaceOnUse"
       y2="43.443626"
       x2="29.646643"
       y1="2"
       x1="29.646643"
       id="linearGradient3648-139"
       xlink:href="#linearGradient3642-252"
       inkscape:collect="always" />
    <linearGradient
       id="linearGradient3642-252">
      <stop
         id="stop2890"
         offset="0"
         style="stop-color:#ffffff;stop-opacity:1;" />
      <stop
         id="stop2892"
         offset="1"
         style="stop-color:#ffffff;stop-opacity:0;" />
    </linearGradient>
    <radialGradient
       r="13.931416"
       fy="25.625349"
       fx="13.138569"
       cy="25.625349"
       cx="13.138569"
       gradientTransform="matrix(0,2.6540647,-3.1628087,0,97.182609,-26.675837)"
       gradientUnits="userSpaceOnUse"
       id="radialGradient3627-206"
       xlink:href="#linearGradient3690-708"
       inkscape:collect="always" />
    <linearGradient
       id="linearGradient3690-708">
      <stop
         offset="0"
         style="stop-color:#e8e8e8;stop-opacity:1"
         id="stop2874" />
      <stop
         offset="0.26238"
         style="stop-color:#d8d8d8;stop-opacity:1"
         id="stop2876" />
      <stop
         offset="0.66093999"
         style="stop-color:#c2c2c2;stop-opacity:1"
         id="stop2878" />
      <stop
         offset="1"
         style="stop-color:#a5a5a5;stop-opacity:1"
         id="stop2880" />
    </linearGradient>
    <linearGradient
       y2="9.5799999"
       x2="21.483376"
       y1="36.255058"
       x1="21.483376"
       gradientTransform="matrix(1.6508808,0,0,1.6568311,-11.466494,-15.045759)"
       gradientUnits="userSpaceOnUse"
       id="linearGradient3629-730"
       xlink:href="#linearGradient3603-635"
       inkscape:collect="always" />
    <linearGradient
       id="linearGradient3603-635">
      <stop
         offset="0"
         style="stop-color:#707070;stop-opacity:1"
         id="stop2884" />
      <stop
         offset="1"
         style="stop-color:#9e9e9e;stop-opacity:1"
         id="stop2886" />
    </linearGradient>
    <linearGradient
       id="linearGradient8838-894">
      <stop
         offset="0"
         style="stop-color:#000000;stop-opacity:1"
         id="stop2868" />
      <stop
         offset="1"
         style="stop-color:#000000;stop-opacity:0"
         id="stop2870" />
    </linearGradient>
    <radialGradient
       r="10.625"
       fy="4.625"
       fx="62.625"
       cy="4.625"
       cx="62.625"
       gradientTransform="matrix(2.1647059,0,0,0.84705771,-111.56471,35.082353)"
       gradientUnits="userSpaceOnUse"
       id="radialGradient3003"
       xlink:href="#linearGradient8838-894"
       inkscape:collect="always" />
  </defs>
  <sodipodi:namedview
     id="base"
     pagecolor="#ffffff"
     bordercolor="#666666"
     borderopacity="1.0"
     inkscape:pageopacity="0.0"
     inkscape:pageshadow="2"
     inkscape:zoom="7"
     inkscape:cx="24"
     inkscape:cy="24"
     inkscape:current-layer="layer1"
     showgrid="true"
     inkscape:grid-bbox="true"
     inkscape:document-units="px"
     inkscape:window-width="603"
     inkscape:window-height="484"
     inkscape:window-x="417"
     inkscape:window-y="162"
     inkscape:window-maximized="0" />
  <metadata
     id="metadata3010">
    <rdf:RDF>
      <cc:Work
         rdf:about="">
        <dc:format>image/svg+xml</dc:format>
        <dc:type
           rdf:resource="http://purl.org/dc/dcmitype/StillImage" />
        <dc:title></dc:title>
      </cc:Work>
    </rdf:RDF>
  </metadata>
  <g
     id="layer1"
     inkscape:label="Layer 1"
     inkscape:groupmode="layer">
    <path
       d="m 47,39 c 0,4.970563 -10.297453,9 -23,9 -12.702548,0 -23,-4.029437 -23,-9 0,-4.970563 10.297452,-9 23,-9 12.702547,0 23,4.029437 23,9 l 0,0 z"
       id="path8836"
       style="opacity:0.3;fill:url(#radialGradient3003);fill-opacity:1;fill-rule:evenodd;stroke:none;stroke-width:0.99999988;marker:none;visibility:visible;display:inline;overflow:visible" />
    <path
       d="m 23.999999,1.4961347 c 1.518797,0 6.415369,12.2754723 7.644103,13.1714173 1.228732,0.895944 14.374596,1.776317 14.843931,3.225986 0.469334,1.449669 -9.650283,9.916699 -10.119617,11.366368 -0.469334,1.449669 2.758685,14.269241 1.529951,15.165186 -1.228733,0.895944 -12.379571,-6.146615 -13.89837,-6.146615 -1.518797,0 -12.669635,7.042559 -13.898369,6.146615 C 8.8728956,43.529147 12.100914,30.709574 11.63158,29.259906 11.162246,27.810237 1.0426298,19.343205 1.5119642,17.893536 1.9812985,16.443869 15.127162,15.563496 16.355896,14.667552 17.584628,13.771607 22.481202,1.4961347 23.999999,1.4961347 z"
       id="path1307"
       style="fill:url(#radialGradient3627-206);fill-opacity:1;fill-rule:nonzero;stroke:url(#linearGradient3629-730);stroke-width:0.9922713;stroke-linecap:butt;stroke-linejoin:round;stroke-miterlimit:4;stroke-opacity:1;stroke-dasharray:none;stroke-dashoffset:0;marker:none;visibility:visible;display:inline;overflow:visible" />
    <path
       d="m 36.457966,42.854576 c 0,0 -4.318414,-3.742625 -10.076299,-4.894202"
       id="path11014"
       style="opacity:0.3;fill:none;stroke:#ffffff;stroke-width:1;stroke-linecap:butt;stroke-linejoin:miter;stroke-miterlimit:4;stroke-opacity:1;stroke-dasharray:none;display:inline" />
    <path
       d="m 11.175618,42.854576 c 0,0 4.318413,-3.742625 10.076298,-4.894202"
       id="path11985"
       style="opacity:0.3;fill:none;stroke:#ffffff;stroke-width:1;stroke-linecap:butt;stroke-linejoin:miter;stroke-miterlimit:4;stroke-opacity:1;stroke-dasharray:none;display:inline" />
    <path
       d="m 24,2.5 c 2.255601,4.3171106 4.478429,8.952433 6.73403,13.269542 4.843973,0.789864 10.26201,1.380836 14.771263,2.50542 -3.449934,3.457984 -6.875961,7.131147 -10.325895,10.589132 0.738138,4.805274 1.213021,9.259541 1.95116,14.064815 C 32.742781,40.748952 28.355003,38.568994 23.967226,36.389035 19.579447,38.568994 15.19167,40.748952 10.803892,42.928909 11.542029,38.123635 11.929163,33.581617 12.6673,28.776343 9.2173666,25.318358 5.9355586,21.692246 2.4856257,18.234262 7.329597,17.444398 12.356449,16.559406 17.20042,15.769542 19.456021,11.452433 21.744398,6.8171106 24,2.5 z"
       id="path1309"
       style="opacity:0.4;fill:none;stroke:url(#linearGradient3648-139);stroke-width:0.99999994;stroke-linecap:butt;stroke-linejoin:round;stroke-miterlimit:4;stroke-opacity:1;stroke-dasharray:none;stroke-dashoffset:0;marker:none;visibility:visible;display:inline;overflow:visible" />
    <path
       d="m 24.023909,2.0218291 c 0,0 4.502337,7.4701031 7.020932,13.3173589 4.843973,0.789864 10.309827,1.404745 14.914715,2.720597 0,0 -2.463879,2.468624 -3.480641,3.487759 0,0 -31.782299,5.712288 -31.782299,5.712288 C 7.7999341,24.283482 4.5120994,21.39468 1.9615429,18.048297 5.5144527,16.97153 12.093455,16.105144 16.937426,15.31528 20.29282,7.4118887 24.023909,2.0218291 24.023909,2.0218291 z"
       id="path3382"
       style="opacity:0.8;fill:url(#linearGradient3619-875);fill-opacity:1;fill-rule:nonzero;stroke:none;stroke-width:1;marker:none;visibility:visible;display:inline;overflow:visible;enable-background:accumulate" />
  </g>
</svg>

<?xml version="1.0" encoding="UTF-8" standalone="no"?>
<!-- Created with Inkscape (http://www.inkscape.org/) -->
<svg id="svg3005" xmlns:rdf="http://www.w3.org/1999/02/22-rdf-syntax-ns#" xmlns="http://www.w3.org/2000/svg" height="48px" width="48px" version="1.1" xmlns:cc="http://creativecommons.org/ns#" xmlns:xlink="http://www.w3.org/1999/xlink" xmlns:dc="http://purl.org/dc/elements/1.1/">
 <defs id="defs3007">
  <linearGradient id="linearGradient3619-875" y2="33.955" gradientUnits="userSpaceOnUse" y1="22.292" gradientTransform="translate(2.9799 -3.1217)" x2="15.215" x1="11.566">
   <stop id="stop2896" style="stop-color:#fff;stop-opacity:.27451" offset="0"/>
   <stop id="stop2898" style="stop-color:#fff;stop-opacity:0" offset="1"/>
  </linearGradient>
  <linearGradient id="linearGradient3648-139" y2="43.444" gradientUnits="userSpaceOnUse" y1="2" x2="29.647" x1="29.647">
   <stop id="stop2890" style="stop-color:#fff" offset="0"/>
   <stop id="stop2892" style="stop-color:#fff;stop-opacity:0" offset="1"/>
  </linearGradient>
  <radialGradient id="radialGradient3627-206" gradientUnits="userSpaceOnUse" cx="13.139" cy="25.625" r="13.931" gradientTransform="matrix(0 2.6541 -3.1628 0 97.183 -26.676)">
   <stop id="stop2874" style="stop-color:#e8e8e8" offset="0"/>
   <stop id="stop2876" style="stop-color:#d8d8d8" offset=".26238"/>
   <stop id="stop2878" style="stop-color:#c2c2c2" offset=".66094"/>
   <stop id="stop2880" style="stop-color:#a5a5a5" offset="1"/>
  </radialGradient>
  <linearGradient id="linearGradient3629-730" y2="9.58" gradientUnits="userSpaceOnUse" y1="36.255" gradientTransform="matrix(1.6509 0 0 1.6568 -11.466 -15.046)" x2="21.483" x1="21.483">
   <stop id="stop2884" style="stop-color:#707070" offset="0"/>
   <stop id="stop2886" style="stop-color:#9e9e9e" offset="1"/>
  </linearGradient>
  <radialGradient id="radialGradient3003" gradientUnits="userSpaceOnUse" cx="62.625" cy="4.625" r="10.625" gradientTransform="matrix(2.1647 0 0 .84706 -111.56 35.082)">
   <stop id="stop2868" offset="0"/>
   <stop id="stop2870" style="stop-opacity:0" offset="1"/>
  </radialGradient>
 </defs>
 <metadata id="metadata3010">
  <rdf:RDF>
   <cc:Work rdf:about="">
    <dc:format>image/svg+xml</dc:format>
    <dc:type rdf:resource="http://purl.org/dc/dcmitype/StillImage"/>
    <dc:title/>
   </cc:Work>
  </rdf:RDF>
 </metadata>
 <g id="layer1">
  <path id="path8836" style="opacity:.3;fill-rule:evenodd;fill:url(#radialGradient3003)" d="m47 39c0 4.9706-10.297 9-23 9s-23-4.0294-23-9 10.297-9 23-9 23 4.0294 23 9z"/>
  <path id="path1307" style="stroke-linejoin:round;stroke:url(#linearGradient3629-730);stroke-width:.99227;fill:url(#radialGradient3627-206)" d="m24 1.4961c1.5188 0 6.4154 12.275 7.6441 13.171 1.2287 0.89594 14.375 1.7763 14.844 3.226 0.46933 1.4497-9.6503 9.9167-10.12 11.366-0.46933 1.4497 2.7587 14.269 1.53 15.165-1.2287 0.89594-12.38-6.1466-13.898-6.1466-1.5188 0-12.67 7.0426-13.898 6.1466-1.2291-0.895 1.999-13.714 1.53-15.164-0.47-1.45-10.589-9.917-10.12-11.366 0.4693-1.45 13.615-2.331 14.844-3.226 1.229-0.896 6.125-13.172 7.644-13.172z"/>
  <path id="path11014" style="opacity:.3;stroke:#fff;fill:none" d="m36.458 42.855s-4.3184-3.7426-10.076-4.8942"/>
  <path id="path11985" style="opacity:.3;stroke:#fff;fill:none" d="m11.176 42.855s4.3184-3.7426 10.076-4.8942"/>
  <path id="path1309" style="opacity:.4;stroke-linejoin:round;stroke:url(#linearGradient3648-139);fill:none" d="m24 2.5c2.2556 4.3171 4.4784 8.9524 6.734 13.27 4.844 0.78986 10.262 1.3808 14.771 2.5054-3.4499 3.458-6.876 7.1311-10.326 10.589 0.73814 4.8053 1.213 9.2595 1.9512 14.065-4.387-2.18-8.775-4.36-13.163-6.54-4.388 2.18-8.775 4.36-13.163 6.54 0.738-4.805 1.125-9.347 1.863-14.153-3.4496-3.458-6.7314-7.084-10.181-10.542 4.8436-0.79 9.87-1.675 14.714-2.464 2.256-4.318 4.544-8.9529 6.8-13.27z"/>
  <path id="path3382" style="opacity:.8;fill:url(#linearGradient3619-875)" d="m24.024 2.0218s4.5023 7.4701 7.0209 13.317c4.844 0.78986 10.31 1.4047 14.915 2.7206 0 0-2.4639 2.4686-3.4806 3.4878 0 0-31.782 5.7123-31.782 5.7123-2.8971-2.977-6.1849-5.865-8.7355-9.212 3.553-1.076 10.132-1.943 14.976-2.733 3.355-7.9031 7.086-13.293 7.086-13.293z"/>
 </g>
</svg>
